X: 202
T: Xiao shanyang (2)
%%abc-version 2.0
%%abcx-abcm2ps-target-version 5.9.1 (29 Sep 2008)
%%abc-creator hum2abc beta
%%abcx-conversion-date 2013/10/02 07:44:28
%%abc-edited-by Helmut Schaffrath
%%humdrum-veritas 682181620
%%humdrum-veritas-data 766598385
%%continueall 1
%%barnumbers 0
L: 1/8
M: 3/4
K: C
C/ D/ E DC2D/ C/ [I:setbarnb 1]| 
[M:2/4]E D C C | 
C> D E3/ G/ | 
[M:3/4]D C C D E D | 
[M:2/4]D2G2 | 
E3D | 
DC3 | 
[M:3/4]E> CC2E C | 
[M:2/4]CE2D | 
[M:3/4]D2C4 | 
[M:2/4]D2E2 | 
E DE2 | 
D2C2 | 
C4 | 
C4 | 
C DE2 | 
DG3- | 
G4 | 
E4 | 
ED3 | 
C2D E | 
[M:3/4]C2D< E-E2 | 
[M:2/4]D2D C | 
CA,3 | 
G,2A,2 |]  



